X:1
T:Westminster Abbey, 87.87.87
T:Westminster Abbey, 87.87.87
T:Henry Purcell, circa 1680
T:Public Domain Courtesy of the Cyber Hymnal™
C:Henry Purcell, circa 1680
Z:Public Domain
Z:Courtesy of the Cyber Hymnal™
%%score ( 1 2 ) ( 3 4 )
L:1/8
M:3/4
K:G
V:1 treble 
V:2 treble 
V:3 bass 
V:4 bass 
V:1
 [GB]4 [Ad]2 | [GB]4 G2 | [Gc]4 [EA]2 | [DF]4 D2 | [DG]4 [FA]2 | [GB]3 [FA] [EG]2 | %6
 [A,F]D [DE]2 ^C2 | D6 | [DF]4 [EA]2 | [DF]4 D2 | [DG]3 E [FA]2 | [GB]4 G2 | [Gc]4 [FB]2 | %13
 [EA]3 B [^DG]E | F2 [EF]2 ^D2 | E6 | [E^G]4 [EG]2 | [EA]4 [EA]2 | [DF]4 [DF]2 | [DG]4 [DG]2 | %20
 [CE]4 [CE]2 | [DF]4 [DG]E | G4 F2 | [DG]6- | [DG]2 z4 |] %25
V:2
 x6 | x4 G2 | x6 | x4 D2 | x6 | x6 | x6 | D6 | x6 | x4 D2 | x6 | x4 G2 | x6 | x3 B E x | %14
 F2 ^D2 x2 | E6 | x6 | x6 | x6 | x6 | x6 | x6 | G4 F2 | x6 | x6 |] %25
V:3
 [G,D]4 [F,D]2 | [G,D]4 ([G,B,]F,) | [E,G,]4 [C,C]2 | [D,A,]4 ([D,F,]C,) | [B,,G,]4 [A,,C]2 | %5
 [G,,B,]4 [E,^C]2 | [F,D]G, A,4 | [D,F,]6 | [D,A,]4 [^C,A,]2 | [D,A,]4 ([D,F,][C,A,]) | %10
 [B,,D]4 [A,,C]2 | [G,,B,]4 [G,B,]2 | [E,G,]3 A, [D,B,]2 | [C,C]4 [B,,G,]2 | [A,,C]2 [B,,F,]3 B, | %15
 [E,G,]6 | [E,B,]4 [D,B,]2 | [^C,A,]4 [C,A,]2 | [D,A,]4 [C,A,]2 | [B,,G,]4 [B,,G,]2 | %20
 [C,G,]4 [A,,A,]2 | [D,A,]4 [G,,B,]2 | [D,A,]4 [D,A,]2 | [G,,B,]6- | [G,,B,]2 z4 |] %25
V:4
 x6 | x6 | x6 | x6 | x6 | x6 | x6 | x6 | x6 | x6 | x6 | x6 | x6 | x6 | x5 B, | x6 | x6 | x6 | x6 | %19
 x6 | x6 | x6 | x6 | x6 | x6 |] %25

